X:204
T: ACH GOTT WIE TRAURIG
N: E1343
O: Europa, Mitteleuropa, Deutschland; Frankreich, Elsass, Weissenburg
R: Staende -, Soldaten -, Kriegs - Lied
M: 4/4
L: 1/16
K: Eb
E2E3G | B6B2B2B2c3B | B4A4z2
A2A2G2 | F6B2=A2B2c2B2 | G8z2
e2e2e2 | c6c2f2e2d3c | c4B4z2
B2e2G2 | F4d2c2B3Ac2B2 | G8z2
e2e2e2 | c6c2f2e2d3c | c4B4z2
B2e2G2 | F4d2c2B3Ac2B2 | G8z2

